X:103
M:2/4
L:1/8
K:G
d | g>d "tr"d2 | e>c "tr"c2 | BdBG | FAFD | g>d "tr"d2 | e>c "tr"c2 | Eed^c | d2 D :|

